dist/img/sprites/icon3.svg

<svg width="65" height="65" viewBox="0 0 65 65" fill="none" xmlns="http://www.w3.org/2000/svg">
<rect x="0.625" y="0.107422" width="64" height="63.9956" rx="12.4414" fill="#F8F1EC"/>
<g clip-path="url(#clip0_1523_30017)">
<path d="M44.8821 19.8502C42.4311 17.3948 38.827 16.4173 34.743 17.0977C30.8053 17.7548 26.8603 19.8911 23.6367 23.1148C20.4131 26.3384 18.2767 30.2848 17.6197 34.2211C16.9393 38.3051 17.9123 41.9048 20.3721 44.3601C22.3168 46.3063 24.9814 47.3233 28.0353 47.3233C28.865 47.3209 29.693 47.2504 30.5112 47.1126C34.4489 46.4556 38.3939 44.3192 41.6175 41.0956C44.8411 37.872 46.9775 33.9255 47.6345 29.9893C48.3149 25.9052 47.3375 22.3012 44.8821 19.8502ZM25.2917 24.7697C28.9045 21.1583 33.3587 19.218 37.1852 19.218C38.6578 19.1956 40.1139 19.5305 41.4287 20.194C39.7888 20.7662 38.254 21.6036 36.8852 22.6728C34.0757 24.8912 32.2569 27.9875 31.4799 31.8754C30.0576 38.984 24.939 41.4131 21.6057 42.2413C18.0982 38.0695 19.6624 30.4004 25.2917 24.7697ZM39.9625 39.4406C34.8864 44.5152 28.1524 46.2858 23.8196 44.0163C25.4613 43.4442 26.9982 42.6068 28.3689 41.5375C31.1784 39.3191 32.9973 36.2228 33.7743 32.3349C35.1966 25.2263 40.3152 22.7972 43.6485 21.969C47.156 26.1408 45.5918 33.8099 39.9625 39.4406Z" fill="#FCB040"/>
</g>
<g clip-path="url(#clip1_1523_30017)">
<g clip-path="url(#clip2_1523_30017)">
<path d="M45.2967 19.4429C42.7038 16.8515 38.9197 15.8154 34.6484 16.5281C30.5893 17.2041 26.5331 19.399 23.2231 22.7075C19.9132 26.016 17.7197 30.0737 17.0437 34.1328C16.3311 38.407 17.3671 42.1882 19.9585 44.7811C22.0159 46.8385 24.824 47.9154 28.0329 47.9154C28.8955 47.913 29.7564 47.8396 30.6068 47.696C34.666 47.0199 38.7222 44.825 42.0321 41.5165C45.3421 38.208 47.5355 34.1504 48.2116 30.0912C48.9242 25.8199 47.8882 22.0359 45.2967 19.4429ZM20.5073 34.7093C21.0633 31.3672 22.91 27.987 25.7063 25.198C28.5026 22.409 31.8828 20.5521 35.225 19.9917C35.8785 19.88 36.5403 19.8228 37.2033 19.8204C38.1066 19.8139 39.006 19.9407 39.8723 20.1965C38.6777 20.7323 37.5529 21.4119 36.5229 22.2202C33.5963 24.5278 31.7116 27.7397 30.9068 31.7681C29.5972 38.3134 25.0098 40.7088 21.8242 41.5853C20.519 39.8425 20.0522 37.4398 20.5073 34.7093ZM44.748 29.5147C44.1919 32.8568 42.3453 36.237 39.549 39.0333C36.7526 41.8297 33.3724 43.6719 30.0303 44.2324C28.3256 44.5162 26.7526 44.4387 25.3844 44.0246C26.5783 43.4902 27.7022 42.8116 28.7309 42.0038C31.6575 39.6962 33.5436 36.4843 34.3485 32.4559C35.6654 25.9106 40.2455 23.5152 43.431 22.6387C44.7363 24.3815 45.2031 26.7842 44.748 29.5147Z" fill="#FCB040"/>
</g>
</g>
<defs>
<clipPath id="clip0_1523_30017">
<rect width="37.4634" height="37.4634" fill="white" transform="translate(13.8945 13.373)"/>
</clipPath>
<clipPath id="clip1_1523_30017">
<rect width="37.4634" height="37.4634" fill="white" transform="translate(13.8945 13.3789)"/>
</clipPath>
<clipPath id="clip2_1523_30017">
<rect width="37.46" height="37.46" fill="white" transform="translate(13.8965 13.3809)"/>
</clipPath>
</defs>
</svg>

<svg width="65" height="65" viewBox="0 0 65 65" fill="none" xmlns="http://www.w3.org/2000/svg"><rect x=".625" y=".107" width="64" height="63.996" rx="12.441" fill="#F8F1EC"/><g clip-path="url(#clip0_1523_30017)"><path d="M44.882 19.85c-2.45-2.455-6.055-3.433-10.139-2.752-3.938.657-7.883 2.793-11.106 6.017-3.224 3.223-5.36 7.17-6.017 11.106-.68 4.084.292 7.684 2.752 10.14 1.945 1.945 4.61 2.962 7.663 2.962.83-.002 1.658-.073 2.476-.21 3.938-.657 7.883-2.794 11.107-6.017 3.223-3.224 5.36-7.17 6.017-11.107.68-4.084-.297-7.688-2.753-10.139zm-19.59 4.92c3.612-3.612 8.067-5.552 11.893-5.552a9.111 9.111 0 014.244.976 15.879 15.879 0 00-4.544 2.479c-2.81 2.218-4.628 5.315-5.405 9.202-1.422 7.109-6.541 9.538-9.874 10.366-3.508-4.172-1.944-11.84 3.686-17.471zm14.67 14.67c-5.076 5.075-11.81 6.846-16.142 4.576a15.906 15.906 0 004.549-2.478c2.81-2.219 4.628-5.315 5.405-9.203 1.423-7.109 6.541-9.538 9.874-10.366 3.508 4.172 1.944 11.84-3.686 17.472z" fill="#FCB040"/></g><g clip-path="url(#clip1_1523_30017)"><g clip-path="url(#clip2_1523_30017)"><path d="M45.297 19.443c-2.593-2.591-6.377-3.628-10.649-2.915-4.059.676-8.115 2.871-11.425 6.18-3.31 3.308-5.503 7.366-6.18 11.425-.712 4.274.324 8.055 2.916 10.648 2.057 2.058 4.865 3.134 8.074 3.134a15.721 15.721 0 002.574-.219c4.059-.676 8.115-2.871 11.425-6.18 3.31-3.308 5.504-7.366 6.18-11.425.712-4.271-.324-8.055-2.915-10.648zm-24.79 15.266c.556-3.342 2.403-6.722 5.2-9.511 2.796-2.789 6.176-4.646 9.518-5.206a12 12 0 011.978-.172 9.192 9.192 0 012.67.377 16.094 16.094 0 00-3.35 2.023c-2.927 2.308-4.811 5.52-5.616 9.548-1.31 6.545-5.897 8.94-9.083 9.817-1.305-1.742-1.772-4.145-1.317-6.876zm24.241-5.194c-.556 3.342-2.403 6.722-5.199 9.518-2.796 2.797-6.177 4.639-9.519 5.2-1.704.283-3.277.206-4.646-.208a16.008 16.008 0 003.347-2.021c2.926-2.308 4.813-5.52 5.617-9.548 1.317-6.545 5.898-8.94 9.083-9.817 1.305 1.742 1.772 4.145 1.317 6.876z" fill="#FCB040"/></g></g><defs><clipPath id="clip0_1523_30017"><path fill="#fff" transform="translate(13.895 13.373)" d="M0 0h37.463v37.463H0z"/></clipPath><clipPath id="clip1_1523_30017"><path fill="#fff" transform="translate(13.895 13.379)" d="M0 0h37.463v37.463H0z"/></clipPath><clipPath id="clip2_1523_30017"><path fill="#fff" transform="translate(13.896 13.38)" d="M0 0h37.46v37.46H0z"/></clipPath></defs></svg>
